src/svg/database.svg

<svg height="1000" width="875.0" xmlns="http://www.w3.org/2000/svg">
    <path d="m875 142.9v89.2c0 78.7-196 142.9-437.5 142.9s-437.5-64.2-437.5-142.9v-89.2c0-78.7 196-142.9 437.5-142.9s437.5 64.2 437.5 142.9z m0 200.9v200.8c0 78.7-196 142.9-437.5 142.9s-437.5-64.2-437.5-142.9v-200.8c94 64.7 266 94.8 437.5 94.8s343.5-30.1 437.5-94.8z m0 312.5v200.8c0 78.7-196 142.9-437.5 142.9s-437.5-64.2-437.5-142.9v-200.8c94 64.7 266 94.8 437.5 94.8s343.5-30.1 437.5-94.8z" />
  </svg>

<svg height="1000" width="875" xmlns="http://www.w3.org/2000/svg"><path d="M875 142.9v89.2C875 310.8 679 375 437.5 375S0 310.8 0 232.1v-89.2C0 64.2 196 0 437.5 0S875 64.2 875 142.9zm0 200.9v200.8c0 78.7 -196 142.9 -437.5 142.9S0 623.3 0 544.6V343.8c94 64.7 266 94.8 437.5 94.8S781 408.5 875 343.8zm0 312.5v200.8C875 935.8 679 1000 437.5 1000S0 935.8 0 857.1V656.3c94 64.7 266 94.8 437.5 94.8S781 721 875 656.3z"/></svg>
